X:168
T:Mug of Brown Ale
M:6/8
L:1/8
R:Jig
K:ADor
"Ami"eAA fAA|gfg age|"G"dBA G2A|BAB Bcd|
"Ami" eAA fAA|gfg age|"G"dBB gBB|1"Ami"ABA "Emi"Agf:|"Ami"2ABA A2e||
"Ami"efg ~a3|aba age| "G"def ~g2a|bag fed|
"Ami"efg ~a3|aba age| "G"dBB gBB|1"Ami"ABA A2e:|2"Ami"ABA Agf||
